X:1
T:Paper of Pins
M:6/8
L:1/8
K:G
 z4 z D| G2 GG-G G| BBd G2 G| F2 A A2 A| F2 A D2 D| E2 E E2 C| G- G2 z2 E|\
 D2 G F2 A| G3- G2 z|
